assets/Teacup without handle/Flat/teacup_without_handle_flat.svg

<svg width="32" height="32" viewBox="0 0 32 32" fill="none" xmlns="http://www.w3.org/2000/svg">
<path d="M29 28.0023H21.4009L16.0683 26.0979L10.5143 28.0023H3C2.45 28.0023 2 28.4523 2 29.0023C2 29.5523 2.45 30.0023 3 30.0023H29C29.55 30.0023 30 29.5523 30 29.0023C30 28.4523 29.55 28.0023 29 28.0023Z" fill="#7D4533"/>
<path d="M21.44 28.0022C25.06 28.0022 28 25.0622 28 21.4422V11.9422C28 11.4222 27.58 11.0022 27.06 11.0022H4.94C4.42 11.0022 4 11.4222 4 11.9422V21.4422C4 25.0622 6.94 28.0022 10.56 28.0022H21.44Z" fill="#A7A8B7"/>
<path d="M10.93 9.24217C10.689 7.61857 10.9548 7.12122 11.2963 6.48226C11.4933 6.11375 11.7154 5.69813 11.88 4.99217C12.2 3.66217 11.72 2.64217 11.35 2.09217C11.24 1.93217 10.99 1.99217 10.96 2.18217C10.8223 3.17665 10.3153 3.95005 9.85145 4.65757C9.40579 5.33737 9 5.95635 9 6.65217C9 8.28217 10.03 9.12217 10.61 9.46217C10.76 9.55217 10.96 9.42217 10.93 9.24217Z" fill="#D3D3D3"/>
<path d="M16.43 9.24217C16.189 7.61857 16.4548 7.12122 16.7963 6.48226C16.9933 6.11375 17.2154 5.69813 17.38 4.99217C17.7 3.66217 17.22 2.64217 16.85 2.09217C16.74 1.93217 16.49 1.99217 16.46 2.18217C16.3223 3.17665 15.8153 3.95005 15.3514 4.65757C14.9058 5.33737 14.5 5.95635 14.5 6.65217C14.5 8.28217 15.53 9.12217 16.11 9.46217C16.26 9.55217 16.46 9.42217 16.43 9.24217Z" fill="#D3D3D3"/>
<path d="M21.61 9.46217C21.76 9.55217 21.96 9.42217 21.93 9.24217C21.689 7.61857 21.9548 7.12122 22.2963 6.48226C22.4933 6.11375 22.7154 5.69813 22.88 4.99217C23.2 3.66217 22.72 2.64217 22.35 2.09217C22.24 1.93217 21.99 1.99217 21.96 2.18217C21.8223 3.17665 21.3153 3.95005 20.8514 4.65757C20.4058 5.33737 20 5.95635 20 6.65217C20 8.28217 21.03 9.12217 21.61 9.46217Z" fill="#D3D3D3"/>
<path d="M10.01 13L7.4214 14.7484C7.16054 14.9212 7 15.2262 7 15.5413V20.3698C7 20.7255 7.28094 21 7.62207 21H12.3779C12.7291 21 13 20.7154 13 20.3698V15.5413C13 15.2262 12.8395 14.9212 12.5786 14.7484L10.01 13Z" fill="#86D72F"/>
<path d="M10 10C9.58579 10 9.25 10.3358 9.25 10.75V15.25C9.25 15.6642 9.58579 16 10 16C10.4142 16 10.75 15.6642 10.75 15.25V10.75C10.75 10.3358 10.4142 10 10 10Z" fill="#E6E6E6"/>
</svg>

<svg xmlns="http://www.w3.org/2000/svg" width="32" height="32" fill="none"><path fill="#7D4533" d="M29 28.002h-7.6l-5.332-1.904-5.554 1.904H3c-.55 0-1 .45-1 1s.45 1 1 1h26c.55 0 1-.45 1-1s-.45-1-1-1Z"/><path fill="#A7A8B7" d="M21.44 28.002c3.62 0 6.56-2.94 6.56-6.56v-9.5c0-.52-.42-.94-.94-.94H4.94c-.52 0-.94.42-.94.94v9.5c0 3.62 2.94 6.56 6.56 6.56h10.88Z"/><path fill="#D3D3D3" d="M10.93 9.242c-.241-1.623.025-2.12.366-2.76.197-.368.42-.784.584-1.49.32-1.33-.16-2.35-.53-2.9-.11-.16-.36-.1-.39.09-.138.995-.645 1.768-1.109 2.476C9.406 5.338 9 5.956 9 6.652c0 1.63 1.03 2.47 1.61 2.81.15.09.35-.04.32-.22ZM16.43 9.242c-.241-1.623.025-2.12.366-2.76.197-.368.42-.784.584-1.49.32-1.33-.16-2.35-.53-2.9-.11-.16-.36-.1-.39.09-.138.995-.645 1.768-1.109 2.476-.445.68-.851 1.298-.851 1.994 0 1.63 1.03 2.47 1.61 2.81.15.09.35-.04.32-.22ZM21.61 9.462c.15.09.35-.04.32-.22-.241-1.623.025-2.12.366-2.76.197-.368.42-.784.584-1.49.32-1.33-.16-2.35-.53-2.9-.11-.16-.36-.1-.39.09-.138.995-.645 1.768-1.109 2.476-.445.68-.851 1.298-.851 1.994 0 1.63 1.03 2.47 1.61 2.81Z"/><path fill="#86D72F" d="m10.01 13-2.589 1.748a.96.96 0 0 0-.421.793v4.829c0 .355.28.63.622.63h4.756a.623.623 0 0 0 .622-.63V15.54a.96.96 0 0 0-.421-.793L10.01 13Z"/><path fill="#E6E6E6" d="M10 10a.75.75 0 0 0-.75.75v4.5a.75.75 0 0 0 1.5 0v-4.5A.75.75 0 0 0 10 10Z"/></svg>
